X:113
T:See, The Lord Ascends In Triumph
%%stretchlast false
M:4/4
L:1/4
K:F clef=C1
"^I"[FAcf] "^V¹"[EGc] "^vi"[DFAf] "^V"[CEcg]/ "^V7³"[B,Ecg]/ | "^I¹"[A,Fca] "^I"[F,Fca]/ "^ii"[F,Gcb]/ "^I²"[CFca] "^V"[CEcg] | "^I¹"[A,Fcc'] "^vi"[DFAf] "^ii7¹"[B,Fdg] "^vi²"[A,Fda]/ "^ii7"[G,Fdb]/ | "^I²"[CFca] "^V"[CEcg] "^I"[F,Fca]2 | [Fca] "^V"[CEcg] "^I"[Fca] "^V¹"[EGcc'] | "^vi"[DAf]/ [DA=Bf]/ "^V¹"[EGce]/ "^V"[FGce]/ "^V²"[Gce] "^ii"[G,GBd] | "^II7¹"[=B,Fdg] [G,Geg]/ "^ii7"[G,Fdg]/ "^iii"[A,Ecc'] "^V²"[G,Gce] | "^iii"[G,Acd] "^II"[G,G=Bd]/ "^II7"[G,F=Bd]/ "^V"[CEc]2 | [CEc]3/2 "^vi7³"[CFcd]/ "^V"[CGce] "^ii"[G,Bdg] | "^I¹"[A,Acf]/ "^I"[B,Acf]/ "^V"[CGce] "^IV¹"[DFBd]/ "^viiø7"[EGBd]/ "^I"[FAc] | "^vi"[DFAf] "^V"[CEcg] "^I"[Fca]/ "^ii"[FGcb]/ "^iii"[A,Acc'] | "^V7²"[G,Ecb] "^I"[F,Fca] "^V"[CEcg] "^V7³"[B,Ecg] | "^I¹"[A,Fcf] "^V"[CEc]/ "^V7³"[B,Ec]/ "^I¹"[A,Fcf] "^V²"[G,Ecg] | "^I"[F,Fca] "^vi"[DFfa]/ "^ii7²"[DGfb]/ "^I²"[CFca] "^V"[CEcg]/ "^V7³"[B,Ecg]/ | "^I¹"[A,Fcc'] "^vi"[DFAf] "^IV"[B,Fdb] "^I"[F,Fca] | [CFcg] "^V"[CEcg]/ "^V7"[CEBg]/ "^I"[F,FAf]2 | [FAcf]3/2 [FAf]/ "^ii7³"[FBfg] "^I"[Fcfa] | "^V¹"[EGgc'] "^iii¹"[Ccea] "^vi"[DAdf] "^ii¹"[B,Gdg] | "^V"[CEc] "^I¹"[A,Fcf] "^V"[CEcg] "^I"[Fca] | "^V¹"[Ecg]/ "^I"[Fca]/ "^♭v°¹"[DF=Bf] "^V"[CGce]2 | "^I"[FAcf]3/2 [FAf]/ "^ii7³"[FBfg] "^I"[Fcfa] | "^iii"[A,cec'] "^iii¹"[Ccea] "^vi"[DAdf] "^II"[G,G=Bg] | "^iii"[A,Ec]3/2 "^♭v°¹"[D,F=Bf]/ "^V¹"[E,Gce] "^I"[F,Ac] | "^V²"[G,Gce]/ [G,Gcf]/ "^V/V"[G,G=Bd] "^V"[CEGc]2 | "^IV"[B,FBd] "^IV¹"[DFBf] "^V"[CGce] "^I"[FAc] | "^IV"[B,Fcd] "^IV¹"[DFBf] "^iv"[FBc] "^I"[FAc] | "^vi"[DFAf] "^ii¹"[B,DBg] "^vi¹"[F,DAa] "^ii"[G,Bd] | "^vi²"[A,Adf]/ [A,Adg]/ "^V/vi"[A,A_de] "^vi"[DFd]2 | "^V"[CGe]/ "^vii°²"[B,Ge]/ "^I¹"[A,Fcf] "^IV"[B,FBd]/ "^ii¹"[B,GBd]/ "^I"[F,Ac] | "^vi"[DFAf] "^V"[CEcg] "^IV"[B,Fdb]/ [B,Feb]/ "^I"[Ffa] | "^iii"[A,Aec'] "^iii¹"[CEca] "^vi"[DFAf] "^ii7¹"[B,Fdg] | "^I²"[CFca]/ [CAcf]/ "^V"[CGce] "^I"[F,FAf]2 |]
